X:1
T:The Speeding Bishop
R:reel
C:Joe Joe Casey
S:Clare FM
Z:psc -  http://www.cranfordpub.com
L:1/8
Q:333
M:C|
K:Ador
b|aged B2 dB|(3ABA BA GE D2|EA A/A/A GABd|eg ~g2 dgbg|
aged BedB|(3ABA BA GE D2|EA A/A/A GABd|gedB BAA:|
|:z|ea ~a2 bagb|a2 ba gedB|AGEG G2 Bd|eg ~g2 dgbg|
ea ~a2 bagb|a2 ba gedB|AGEG GABd|gedB BAA:|
